layouts/icon-pack/armor_robes.svg

<?xml version="1.0" encoding="UTF-8"?>
<svg width="1200pt" height="1200pt" version="1.1" viewBox="0 0 1200 1200" xmlns="http://www.w3.org/2000/svg">
 <path d="m875.79 213.82c-7.1055-10.867-17.004-19.625-28.656-25.352-11.652-5.7266-24.633-8.2148-37.578-7.2031-98.602 8.0156-142.27 60.328-142.8 60.938-5.4297 6.3828-13.812 9.4492-22.078 8.0703-8.2656-1.3789-15.203-6.9961-18.266-14.797-3.0625-7.8008-1.8047-16.637 3.3125-23.273 2.7891-3.4688 60.938-73.195 187.76-79.242 5.6172-0.24219 10.809-3.0625 14.074-7.6406 3.2656-4.5781 4.2383-10.406 2.6367-15.797-13.828-43.148-62.109-70.43-108.12-52.055-90.914 36.281-184.95 90.492-229.2 117.23-7.8477 4.7461-16.918 7.0859-26.082 6.7266-9.168-0.35938-18.027-3.3984-25.48-8.7422l-26.484-18.867c-18.309-13.039-41.746-16.543-63.062-9.4258-21.32 7.1211-37.953 24.004-44.75 45.426l-0.32812 0.98438c-39.844 138.07-156.73 329.84-211.73 415.66-18.961 29.555-13.336 69.164 13.477 91.406 21.02 17.102 43.938 31.727 68.297 43.594 6.7148 3.3047 14.574 3.3711 21.344 0.17578 6.7695-3.1914 11.715-9.2969 13.438-16.582 34.641-144.45 59.695-265.2 60.188-267.54 1.7656-8.293 7.8047-15.023 15.859-17.676 8.0547-2.6484 16.91-0.82422 23.258 4.8008 6.3477 5.6211 9.2305 14.191 7.5703 22.508-3 14.508-59.062 284.74-120.54 501.56-3.1211 20.836 3.3203 41.965 17.531 57.516 47.438 51.562 113.58 83.203 161.51 100.95 29.93 11.062 61.5-11.719 61.477-44.227-0.23438-412.03 10.148-609.12 15.633-684.38 0.64453-10.312 5.1719-20 12.668-27.113 7.4961-7.1133 17.406-11.125 27.738-11.23 10.77 0.125 21.055 4.4805 28.633 12.129 7.582 7.6523 11.844 17.977 11.867 28.746 4.1016 284.6 35.156 587.98 48.281 705.68 1.3086 13.227 8.2734 25.242 19.098 32.957 10.824 7.7109 24.457 10.367 37.387 7.2852 161.34-40.031 320.34-139.8 401.11-195.98 13.965-9.8867 23.102-25.211 25.16-42.195 2.0586-16.984-3.1562-34.051-14.355-46.984-24.82-28.547-48.75-57.234-67.453-80.016-4.6992-5.7109-11.055-9.8242-18.191-11.777-7.1328-1.9531-14.699-1.6445-21.652 0.87891-12.82 4.6875-24.609 9.0469-35.156 13.031-27.359 10.281-57.84 8.1406-83.496-5.8633-25.652-14-43.941-38.48-50.098-67.051-27.188-125.13-47.602-254.91-47.812-256.2-1.1016-6.2969 0.37109-12.773 4.0898-17.973 3.7188-5.1992 9.3711-8.6875 15.688-9.6797 6.3125-0.99609 12.762 0.58984 17.898 4.3984 5.1328 3.8047 8.5273 9.5156 9.4102 15.848 0.21094 1.2891 20.344 128.91 46.875 252.45 2.3125 11.484 8.2812 21.91 17.016 29.719 7.1953 6.3086 15.969 10.543 25.383 12.262 9.4141 1.7148 19.117 0.84766 28.078-2.5117 41.625-15.586 100.95-37.031 168.12-59.062l21.656-10.57c11.316-5.6719 19.922-15.602 23.926-27.609 4-12.012 3.0742-25.117-2.5742-36.445-71.109-143.09-175.12-306.3-231.49-391.88z" fill="#fff"/>
</svg>

<?xml version="1.0" encoding="UTF-8" standalone="no"?>
<!DOCTYPE svg PUBLIC "-//W3C//DTD SVG 1.1//EN" "http://www.w3.org/Graphics/SVG/1.1/DTD/svg11.dtd">
<svg width="100%" height="100%" viewBox="0 0 479 512" version="1.1" xmlns="http://www.w3.org/2000/svg" xmlns:xlink="http://www.w3.org/1999/xlink" xml:space="preserve" xmlns:serif="http://www.serif.com/" style="fill-rule:evenodd;clip-rule:evenodd;stroke-linejoin:round;stroke-miterlimit:2;">
    <g transform="matrix(1,0,0,1,-87.7888,-51.6519)">
        <g transform="matrix(0.466888,0,0,0.466888,46.8013,27.5362)">
            <path d="M875.79,213.82C868.684,202.953 858.786,194.195 847.134,188.468C835.482,182.741 822.501,180.253 809.556,181.265C710.954,189.28 667.286,241.593 666.756,242.203C661.326,248.586 652.944,251.652 644.678,250.273C636.412,248.894 629.475,243.277 626.412,235.476C623.35,227.675 624.607,218.839 629.725,212.203C632.514,208.734 690.663,139.008 817.485,132.961C823.102,132.719 828.294,129.899 831.559,125.321C834.824,120.743 835.797,114.915 834.195,109.524C820.367,66.376 772.086,39.094 726.075,57.469C635.161,93.75 541.125,147.961 496.875,174.699C489.028,179.445 479.957,181.785 470.793,181.425C461.625,181.066 452.766,178.027 445.313,172.683L418.829,153.816C400.52,140.777 377.083,137.273 355.767,144.39C334.447,151.511 317.814,168.394 311.017,189.816L310.689,190.801C270.845,328.871 153.959,520.641 98.959,606.461C79.998,636.016 85.623,675.625 112.436,697.867C133.456,714.969 156.374,729.594 180.733,741.461C187.448,744.765 195.307,744.832 202.077,741.636C208.847,738.445 213.792,732.339 215.515,725.054C250.156,580.604 275.21,459.854 275.703,457.514C277.469,449.221 283.508,442.491 291.562,439.838C299.617,437.19 308.472,439.014 314.82,444.639C321.168,450.26 324.051,458.83 322.39,467.147C319.39,481.655 263.328,751.887 201.85,968.707C198.729,989.543 205.171,1010.67 219.381,1026.22C266.819,1077.79 332.961,1109.43 380.891,1127.17C410.821,1138.24 442.391,1115.45 442.368,1082.95C442.134,670.916 452.516,473.826 458.001,398.566C458.646,388.254 463.173,378.566 470.669,371.453C478.165,364.34 488.075,360.328 498.407,360.223C509.177,360.348 519.462,364.704 527.04,372.352C534.622,380.004 538.884,390.329 538.907,401.098C543.009,685.698 574.063,989.078 587.188,1106.78C588.497,1120.01 595.462,1132.02 606.286,1139.74C617.11,1147.45 630.743,1150.1 643.673,1147.02C805.013,1106.99 964.013,1007.22 1044.78,951.04C1058.75,941.154 1067.88,925.829 1069.94,908.845C1072,891.861 1066.79,874.794 1055.59,861.861C1030.77,833.314 1006.84,804.627 988.135,781.845C983.436,776.134 977.08,772.021 969.944,770.068C962.812,768.115 955.245,768.424 948.292,770.947C935.472,775.635 923.683,779.994 913.136,783.978C885.777,794.259 855.296,792.119 829.64,778.115C803.988,764.115 785.699,739.635 779.542,711.064C752.354,585.934 731.94,456.154 731.73,454.864C730.629,448.567 732.101,442.091 735.82,436.891C739.539,431.692 745.191,428.203 751.508,427.211C757.821,426.215 764.27,427.801 769.406,431.61C774.539,435.414 777.933,441.125 778.816,447.458C779.027,448.747 799.16,576.368 825.691,699.908C828.004,711.392 833.973,721.818 842.707,729.627C849.903,735.935 858.676,740.17 868.09,741.889C877.504,743.603 887.207,742.736 896.168,739.377C937.793,723.791 997.118,702.346 1064.29,680.315L1085.94,669.745C1097.26,664.073 1105.87,654.143 1109.87,642.136C1113.87,630.124 1112.94,617.019 1107.3,605.691C1036.19,462.601 932.176,299.391 875.806,213.811L875.79,213.82Z" style="fill:white;fill-rule:nonzero;"/>
        </g>
    </g>
</svg>
